!!!!SEGMENT: pl-wtm--r-247-m_moniuszko-stanislaw--spiewak-w-obcej-stronie.krn
!!!cenid: 18xx:1653
!!!COM: Moniuszko, Stanisław
!!!COM-rismID:
!!!CDT: 1819/05/05-1872/06/04
!!!CNT: Polish
!!!OTL: Śpiewak w obcej stronie
!!!PDT:
!!!AGN: Secular
!!!SMS-siglum: PL-Wtm
!!!SMS-shelfmark: R 247/M
!!!SMS-shelfwork: W
!!!SMS-variant:
!!!SMS-altvar:
!!!NIFC-rismSourceID: 1001063783
!!!NIFC-islandoraID:
!!!URL-pdf-islandora:
!!!URL-scan:
!!!ONB-nifc:
!!!AIN: 1 forte 1 vox
!!!key:
**kern	**kern	**dynam	**kern	**text	**text	**text
*part2	*part2	*part2	*part1	*part1	*part1	*part1
*staff3	*staff2	*	*staff1	*staff1	*staff1	*staff1
*Iforte	*Iforte	*	*Ivox	*	*	*
*I"Fortepian	*I"Fortepian	*	*I"[Voice]	*	*	*
*I'pf	*I'pf	*	*I'V	*	*	*
*clefF4	*clefG2	*	*clefG2	*	*	*
*k[b-e-a-d-]	*k[b-e-a-d-]	*	*k[b-e-a-d-]	*	*	*
*f:	*f:	*	*f:	*	*	*
*M6/8	*M6/8	*	*M6/8	*	*	*
*>[A,B,B1,B,B1,B,B3]	*>[A,B,B1,B,B1,B,B3]	*	*>[A,B,B1,B,B1,B,B3]	*	*	*
=1	=1	=1	=1	=1	=1	=1
*>A	*>A	*	*>A	*	*	*
*^	*^	*	*	*	*	*
!	!	!	!	!	!LO:TX:t=P:pp=pp.:global:problem	!	!	!
!	!	!	!	!	!LO:TX:t=P:p=p.:global:problem	!	!	!
!	!	!	!	!	!LO:TX:t=P:problem=skan 0027	!	!	!
!	!	!	!	!	!LO:TX:t=P:problem=all\left,middle,right&colon; global	!	!	!
!	!	!	!	!	!LO:TX:a:i:t=Andantino.	!	!	!
!	!	!	!	!	!LO:TX:a:i:t=29. Spiewak w obcej stronie.	!	!	!
!	!	!	!	!	!LO:TX:a:i:t=J. B. Zaleskiego.	!	!	!
!	!	!	!	!LO:DY:b:t=p.	!	!	!	!
8r	8ryy	(>4a-/	4.c\	p	2.r	.	.	.
8CC/L	[<4CC\	.	.	.	.	.	.	.
8C/J	.	8a-/	.	.	.	.	.	.
4Dn/	4.CC\]	8g/L	4Bn\	.	.	.	.	.
.	.	8c/	.	.	.	.	.	.
8En/	.	8g/J)	8B-X\	.	.	.	.	.
*v	*v	*	*	*	*	*	*	*
*	*v	*v	*	*	*	*	*
=2	=2	=2	=2	=2	=2	=2
2.F 2.FF/	(<8fL 8A-/	.	2.r	.	.	.
.	8c/	.	.	.	.	.
.	8f/J	.	.	.	.	.
.	8A-/L	.	.	.	.	.
.	8c/	.	.	.	.	.
.	8f/J	.	.	.	.	.
=3	=3	=3	=3	=3	=3	=3
2.FF/	8A-/L	.	4c/	Ni-	.	.
.	8c/	.	.	.	.	.
.	8f/J	.	8f/	-gdyż	.	.
.	8A-/L	.	8a-/	ser-	.	.
.	8c/	.	8g/	-ce	.	.
.	8f/J)	.	8f/	stęs-	.	.
=4!|:	=4!|:	=4!|:	=4!|:	=4!|:	=4!|:	=4!|:
*>B	*>B	*	*>B	*	*	*
(<4.FF/	(8A-/L	.	[>4.cc\	-knio-	ty-	- wie-
.	8c/	.	.	.	.	.
.	8a-/J	.	.	.	.	.
8C/L	8gL 8B-/	.	4cc\]	.	.	.
8FF/	8f 8A-/	.	.	.	.	.
8C/J)	8enJ 8G/)	.	8cc\	-ne	-le	-ka
!!LO:LB:g=original
=5	=5	=5	=5	=5	=5	=5
2.FF/	(<8fL 8A-/	.	8.cc\L	mar	każ-	dar-
.	8c/	.	.	.	.	.
.	.	.	16dd-\Jk	.	.	.
.	8f/J	.	8cc\	mi-	-dy	-mo
.	8B-/L	.	8b-/	-nio-	dla	dzień
.	8d-/	.	8f/	-nych	mnie	mi
.	8B-/J)	.	8b-/	nie	za-	tu
=6	=6	=6	=6	=6	=6	=6
*2\right	*	*	*	*	*	*
2.F\	(<8A-/L	.	[>4.cc\	prze-	-ką-	pło-
.	8c/	.	.	.	.	.
.	8f/J	.	.	.	.	.
.	8a-L 8c/	.	4cc\]	.	.	.
.	8g 8B-/	.	.	.	.	.
.	8fJ 8A-/)	.	8a-\	-śni?	-tek,	-nie!
=7	=7	=7	=7	=7	=7	=7
4.C/	(<8e-/L	.	4g/	wie-	wszy-	wzrok,
.	8c/	.	.	.	.	.
.	8G/J	.	8g/	-cznież	-stkie,	jak
4.FF/	8A-/L	.	8cc\	w je-	wszy-	pie-
.	8c/	.	8b-\	-dną	-stkie	-śni...
.	8f/J)	.	8a-\	gdzieś	tu	da-
=8	=8	=8	=8	=8	=8	=8
*^	*	*	*	*	*	*
(<8G/L	2.CC/	8.e-/L	.	[<4.g/	stro-	chwi-	-le-
8c/	.	.	.	.	.	.	.
.	.	16f/K	.	.	.	.	.
8G/J	.	8e-/J	.	.	.	.	.
4.F/)	.	8dn/L	.	4g/]	.	.	.
.	.	8G/	.	.	.	.	.
.	.	8d/J	.	8g/	-nę	-le	-ko
*v	*v	*	*	*	*	*	*
!!LO:LB:g=original
=9	=9	=9	=9	=9	=9	=9
4.C\	(8cL 8E-</	.	8g/L	za-	są	wie-
.	8G</	.	8a-/J	.	.	.
.	8c/J	.	8g/	-cza-	bez	-cznie
!	!LO:TX:t=P:problem=mixed beam	!	!	!	!	!
4.FF/	8A-</L	.	8f/	-ru-	wra-	w je-
.	8c\	.	8c/	-je	-żeń,	-dnej
.	8f\J)	.	8f/	me	pa-	tkwi
=10	=10	=10	=10	=10	=10	=10
*^	*	*	*	*	*	*
8G/L	4.C\	(<8.e-/L	.	[<4.g/	pieś-	-mią-	stro-
8c/	.	.	.	.	.	.	.
.	.	16f/K	.	.	.	.	.
8G/J	.	8e-/J	.	.	.	.	.
8d-X/L	4.BB-\	8.e-/L	.	4g/]	.	.	.
8G/	.	.	.	.	.	.	.
.	.	16f/K	.	.	.	.	.
8d-/J	.	8e-/J)	.	8cc\	-ni?	-tek.	-nie.
*v	*v	*	*	*	*	*	*
=11	=11	=11	=11	=11	=11	=11
2.E- 2.AA-/	(<8a-L 8c/	.	4cc\	Jak	I	Ku
.	8e-/	.	.	.	.	.
!	!	!LO:HP:b	!	!	!	!
.	8a-J 8c/	<	8cc\	świat	to	niéj
.	8ccL 8e-/	.	8ee-\	dłu-	ser-	tę-
.	8b- 8d-/	.	8dd-\	-gi,	-ce,	-sknię
.	8a-J 8c/	[[	8cc\	sze-	o	z wie-
=12	=12	=12	=12	=12	=12	=12
*	*^	*	*	*	*	*
!	!	!	!LO:HP:b	!	!	!	!
4.E- 4.EE-/	4.g/	8B-\L	>	4.b-\	-ro-	dzi-	-czo-
.	.	8e-\	.	.	.	.	.
.	.	8B-\J	.	.	.	.	.
4.C/	4.g 4.e-/)	8c\L	.	4.cc\	-ki,	-wo!	-ra,
.	.	8G\	.	.	.	.	.
.	.	8c\J	]	.	.	.	.
*	*v	*v	*	*	*	*	*
!!LO:LB:g=original
=13	=13	=13	=13	=13	=13	=13
2.C 2.FF/	(<8fL 8A-/	.	4a-/	z lut-	tak	z ju-
!	!	!LO:HP:b=2	!	!	!	!
.	8c/	<	.	.	.	.
.	8fJ 8A-/	.	8a-/	-nią	czu-	-trznią
.	8a-L 8c/	.	8cc\	mo-	-ją-	tę-
.	8g 8B-/	.	8b-\	-ją	-ce	-sknię
.	8fJ 8A-/	[	8a-\	pód-	dziś	i
=14	=14	=14	=14	=14	=14	=14
*	*^	*	*	*	*	*
2.C 2.CC/	[4.e-/	8G\L	.	4.g/	-róż-	ma-	pła-
!	!	!	!LO:HP:b=2	!	!	!	!
.	.	8c\	>	.	.	.	.
.	.	8B-\J	.	.	.	.	.
.	8e-/L]	4.A-\	.	4.a-/	-ną,	-ło,	-czę,
.	8a-/	.	]	.	.	.	.
.	8g/J)	.	.	.	.	.	.
=15	=15	=15	=15	=15	=15	=15	=15
!	!LO:TX:t=P:problem=mixed beam	!	!	!	!	!	!
(<4D- 4DD-\	(>4f/	8f\L	.	4f/	zmie-	in-	bom
.	.	8F<</	.	.	.	.	.
!	!	!LO:TX:b:i:t=cres. cen. do:problem=dynamics with line extensions	!LO:HP:b:t=cres. cen. do:ext=ct	!	!	!	!
8C 8CC\	8e-/	8e-\J	<	8f/	-niam	-dziej	po-
!	!LO:TX:t=P:problem=mixed beam	!	!	!	!	!	!
4BB- 4BBB-\	4d-/	8d-\L	.	8f/	miej-	bi-	-że-
.	.	8F</	.	8b-\	-sca,	-ło	-gnał
8AA- 8AAA-\	8c/	8c\J	.	8cc\	wi-	tak	nie
*	*v	*v	*	*	*	*	*
=16	=16	=16	=16	=16	=16	=16
*^	*	*	*	*	*	*
4.F/	2.GG 2.GGG\	4.B-/	.	[>4.dd-\	-do-	ży-	wczo-
!	!	!	!LO:HP:b	!	!	!	!
(>4F-X/	.	4.d- 4.B-/)	[ > ]]	4dd-\]	.	.	.
8E-/))	.	.	.	8dd-\	-ki;	-wo,	-ra,
*v	*v	*	*	*	*	*	*
!!LO:PB:g=original
=17	=17	=17	=17	=17	=17	=17
!	!	!	!LO:TX:a:i:t=ra-lent.	!	!	!
4AA- 4AAA-\	4c 4E-</	.	8.cc\L	a-	tak	i
.	.	.	16dd-\Jk	.	.	.
!	!	!LO:DY:b:t=p.	!	!	!	!
8r	8r	p	8cc\	-le	pło-	nie
4D- 4DD-\	4f 4B- 4F</	.	8b-/	zmie-	-mie-	ju-
.	.	.	8f/	-niam	-nie	-tro
8r	8r	.	8b-/	na	ko-	zo-
=18	=18	=18	=18	=18	=18	=18
*^	*^	*	*	*	*	*
*	*	*	*	*	*2\right	*	*	*
!LO:TX:t=P:problem=mixed beam	!	!	!	!	!	!	!	!
!	!	!	!	!LO:DY:b:t=pp.	!	!	!	!
8C/L 8CC/	4.ryy	(>4.aa-/	8.cc\L	pp	2.cc\	próż-	-cha-	-ba-
8c\	.	.	.	.	.	.	.	.
.	.	.	16dd-\K	.	.	.	.	.
[>8f\J	.	.	8cc\J	.	.	.	.	.
4f/]	8dn\L	4.gg/	8bn\L	.	.	.	.	.
.	8G\	.	8g\	.	.	.	.	.
8en/	8c\J	.	8b-X\J	.	.	.	.	.
*	*	*v	*v	*	*	*	*	*
=19	=19	=19	=19	=19	=19	=19	=19
!	!	!	!	!LO:TX:a:i:t=a tempo.	!	!	!
8A-/L	[<2.F\	4ff 4a- 4f\)	.	4f/	-no.	-ło.	-czę.
8c/	.	.	.	.	.	.	.
*	*	*8va	*	*	*	*	*
!	!	!LO:TX:a:t=col	!	!	!	!	!
8f/J	.	8aa-\	.	8ryy	.	.	.
8A-/L	.	8ccc\L	.	4.ryy	.	.	.
8c/	.	8bb-\	.	.	.	.	.
8f/J	.	8aa-\J	.	.	.	.	.
=20	=20	=20	=20	=20	=20	=20	=20
8A-/L	2.F\]	[<4.fff\	.	2.ryy	.	.	.
8c/	.	.	.	.	.	.	.
8f/J	.	.	.	.	.	.	.
8BnL 8A-/	.	4fff\]	.	.	.	.	.
8d-X/	.	.	.	.	.	.	.
8f/J	.	8ddd-\	.	.	.	.	.
!!LO:LB:g=original
=21	=21	=21	=21	=21	=21	=21	=21
8A-/L	4.F\	8.ccc\L	.	2.r	.	.	.
8c/	.	.	.	.	.	.	.
.	.	16ddd-\K	.	.	.	.	.
8f/J	.	8ccc\J	.	.	.	.	.
8d-/L	4.d- 4.F\	(<8bbn/L	.	.	.	.	.
8A-/	.	8ff/	.	.	.	.	.
8f/J	.	8bb/J)	.	.	.	.	.
=22	=22	=22	=22	=22	=22	=22	=22
8dn/L	4.d 4.F\	8.bb-X/L	.	2.r	.	.	.
8A-/	.	.	.	.	.	.	.
.	.	16ccc/K	.	.	.	.	.
8f/J	.	8bb-/J	.	.	.	.	.
*	*^	*	*	*	*	*	*
4.en/	(>8B-\L	4.F\	8bb-/L	.	.	.	.	.
.	8c\	.	8aa-/	.	.	.	.	.
.	8B-\J	.	8gg/J	.	.	.	.	.
*v	*v	*v	*	*	*	*	*	*
*	*X8va	*	*	*	*	*
=23	=23	=23	=23	=23	=23	=23
*>B1	*>B1	*	*>B1	*	*	*
*^	*	*	*	*	*	*
!	!	!	!	!LO:TX:a:t=P:problem=ten takt stanowi zarówno voltę 1, jak i voltę 2	!	!	!
!	!	!	!	!LO:TX:a:t=1. 2.	!	!	!
8fL 8A-/)	2.F\	2.ff 2.f/	.	4c/	Przez	Ach	.
8c/	.	.	.	.	.	.	.
!	!	!	!	!LO:SIC:l:v:s=miejsc	!	!	!
8f/J	.	.	.	8f/	miejs	przed	.
8A-/L	.	.	.	8a-/	ty-	mo-	.
8c/	.	.	.	8g/	-le	-krą	.
8f/J	.	.	.	8f/	chwil...	po...	.
*v	*v	*	*	*	*	*	*
=24:|!	=24:|!	=24:|!	=24:|!	=24:|!	=24:|!	=24:|!
*>B3	*>B3	*	*>B3	*	*	*
!	!	!	!LO:TX:a:t=3	!	!	!
4f 4A- 4F\	4ff 4f/	.	2.r	.	.	.
8r	8r	.	.	.	.	.
4A- 4C 4FF/	4cc 4f 4c/	.	.	.	.	.
8r	8r	.	.	.	.	.
=25	=25	=25	=25	=25	=25	=25
!LO:TX:b:t=8	!	!	!	!	!	!
2.FF/	2.f 2.c 2.A-/	.	2.r	.	.	.
==	==	==	==	==	==	==
*-	*-	*-	*-	*-	*-	*-
!!!system-decoration: {(s1)(s2,s3)}
!!!RDF**kern: > = above
!!!RDF**kern: < = below
!!!EED: Antoni Szymański
!!!EEV: 2021-04-15
!!!ENC: Katarzyna Serwa
!!!END: 2021-03-29
